img/svg/Instagram.svg

<svg width="24" height="24" viewBox="0 0 24 24" fill="none" xmlns="http://www.w3.org/2000/svg">
<path d="M12.0064 2.98086C14.9472 2.98086 15.2955 2.99375 16.452 3.04531C17.5269 3.09258 18.1073 3.27305 18.4942 3.42344C19.0059 3.62109 19.3756 3.86172 19.7583 4.24414C20.1452 4.63086 20.3817 4.99609 20.5794 5.50742C20.7299 5.89414 20.9105 6.47852 20.9578 7.54844C21.0094 8.70859 21.0223 9.05664 21.0223 11.9914C21.0223 14.9305 21.0094 15.2785 20.9578 16.4344C20.9105 17.5086 20.7299 18.0887 20.5794 18.4754C20.3817 18.9867 20.1409 19.3563 19.7583 19.7387C19.3713 20.1254 19.0059 20.3617 18.4942 20.5594C18.1073 20.7098 17.5226 20.8902 16.452 20.9375C15.2912 20.9891 14.9429 21.002 12.0064 21.002C9.06566 21.002 8.71741 20.9891 7.56088 20.9375C6.48603 20.8902 5.90561 20.7098 5.51866 20.5594C5.00704 20.3617 4.63729 20.1211 4.25464 19.7387C3.8677 19.352 3.63123 18.9867 3.43346 18.4754C3.28298 18.0887 3.1024 17.5043 3.05511 16.4344C3.00352 15.2742 2.99062 14.9262 2.99062 11.9914C2.99062 9.05234 3.00352 8.7043 3.05511 7.54844C3.1024 6.47422 3.28298 5.89414 3.43346 5.50742C3.63123 4.99609 3.872 4.62656 4.25464 4.24414C4.64159 3.85742 5.00704 3.62109 5.51866 3.42344C5.90561 3.27305 6.49033 3.09258 7.56088 3.04531C8.71741 2.99375 9.06566 2.98086 12.0064 2.98086ZM12.0064 1C9.01837 1 8.64432 1.01289 7.47059 1.06445C6.30115 1.11602 5.49717 1.30508 4.80066 1.57578C4.07407 1.85937 3.45925 2.2332 2.84874 2.84766C2.23393 3.45781 1.85988 4.07227 1.57612 4.79414C1.30526 5.49453 1.11608 6.29375 1.06449 7.4625C1.0129 8.63984 1 9.01367 1 12C1 14.9863 1.0129 15.3602 1.06449 16.5332C1.11608 17.702 1.30526 18.5055 1.57612 19.2016C1.85988 19.9277 2.23393 20.5422 2.84874 21.1523C3.45925 21.7625 4.07407 22.1406 4.79637 22.4199C5.49717 22.6906 6.29685 22.8797 7.46629 22.9312C8.64002 22.9828 9.01407 22.9957 12.0021 22.9957C14.9902 22.9957 15.3643 22.9828 16.538 22.9312C17.7074 22.8797 18.5114 22.6906 19.2079 22.4199C19.9302 22.1406 20.545 21.7625 21.1556 21.1523C21.7661 20.5422 22.1444 19.9277 22.4239 19.2059C22.6947 18.5055 22.8839 17.7063 22.9355 16.5375C22.9871 15.3645 23 14.9906 23 12.0043C23 9.01797 22.9871 8.64414 22.9355 7.47109C22.8839 6.30234 22.6947 5.49883 22.4239 4.80273C22.153 4.07227 21.779 3.45781 21.1642 2.84766C20.5536 2.2375 19.9388 1.85938 19.2165 1.58008C18.5157 1.30937 17.716 1.12031 16.5466 1.06875C15.3686 1.01289 14.9945 1 12.0064 1Z" fill="#101010"/>
<path d="M12.0064 6.34961C8.88509 6.34961 6.35275 8.88047 6.35275 12C6.35275 15.1195 8.88509 17.6504 12.0064 17.6504C15.1278 17.6504 17.6602 15.1195 17.6602 12C17.6602 8.88047 15.1278 6.34961 12.0064 6.34961ZM12.0064 15.6652C9.98143 15.6652 8.33907 14.0238 8.33907 12C8.33907 9.97617 9.98143 8.33477 12.0064 8.33477C14.0315 8.33477 15.6738 9.97617 15.6738 12C15.6738 14.0238 14.0315 15.6652 12.0064 15.6652Z" fill="#101010"/>
<path d="M19.2036 6.12591C19.2036 6.85638 18.6103 7.44505 17.8837 7.44505C17.1528 7.44505 16.5638 6.85209 16.5638 6.12591C16.5638 5.39544 17.1571 4.80677 17.8837 4.80677C18.6103 4.80677 19.2036 5.39974 19.2036 6.12591Z" fill="#101010"/>
</svg>

<svg width="24" height="24" fill="none" xmlns="http://www.w3.org/2000/svg"><path d="M12.006 2.98c2.941 0 3.29.014 4.446.065 1.075.048 1.655.228 2.042.378.512.198.882.439 1.264.821.387.387.624.752.821 1.263.15.387.331.972.379 2.041.051 1.16.064 1.509.064 4.443 0 2.94-.013 3.287-.064 4.443-.047 1.075-.228 1.655-.379 2.041a3.4 3.4 0 01-.82 1.264 3.386 3.386 0 01-1.265.82c-.387.15-.971.331-2.042.378-1.16.052-1.51.065-4.446.065-2.94 0-3.289-.013-4.445-.064-1.075-.048-1.655-.228-2.042-.379a3.405 3.405 0 01-1.264-.82 3.383 3.383 0 01-.822-1.264c-.15-.386-.33-.97-.378-2.04-.051-1.16-.064-1.509-.064-4.444 0-2.939.013-3.287.064-4.443.047-1.074.228-1.654.378-2.04.198-.512.439-.881.822-1.264a3.386 3.386 0 011.264-.82c.387-.15.971-.331 2.042-.379 1.156-.051 1.505-.064 4.445-.064zm0-1.98c-2.988 0-3.362.013-4.535.064-1.17.052-1.974.241-2.67.512a5.372 5.372 0 00-1.952 1.272 5.39 5.39 0 00-1.273 1.946c-.27.7-.46 1.5-.512 2.669C1.013 8.64 1 9.013 1 12c0 2.986.013 3.36.064 4.533.052 1.169.241 1.973.512 2.669.284.726.658 1.34 1.273 1.95a5.38 5.38 0 001.947 1.268c.701.27 1.5.46 2.67.511 1.174.052 1.548.065 4.536.065 2.988 0 3.362-.013 4.536-.065 1.17-.051 1.973-.24 2.67-.511a5.38 5.38 0 001.948-1.268c.61-.61.988-1.224 1.268-1.946.27-.7.46-1.5.512-2.668.051-1.174.064-1.547.064-4.534 0-2.986-.013-3.36-.064-4.533-.052-1.169-.241-1.972-.512-2.668a5.152 5.152 0 00-1.26-1.955 5.381 5.381 0 00-1.948-1.268c-.7-.27-1.5-.46-2.67-.511C15.37 1.013 14.996 1 12.007 1z" fill="#101010"/><path d="M12.006 6.35A5.653 5.653 0 006.353 12a5.653 5.653 0 0011.307 0c0-3.12-2.532-5.65-5.654-5.65zm0 9.315A3.667 3.667 0 018.34 12a3.667 3.667 0 017.335 0 3.667 3.667 0 01-3.668 3.665zm7.198-9.539a1.32 1.32 0 11-2.64-.001 1.32 1.32 0 012.64 0z" fill="#101010"/></svg>
